X: 0
T: Fenterlarick
P: Duple longways proper
C: dance: Joyce Walker 1997
C: music: Fred Grimshaw
N: tune: Nancy's Fancy by Fred Grimshaw
K:
P: Nancy's Fancy   [C]
C: Fred Grimshaw
N: For the dance Fenterlarick by Joyce Walker
N: The titles for the dance and the tune are a bit confused.
N: Playford published a different "Nancy's Fancy" tune and dance.
B: Barnes p.33
Z: 1998 by John Chambers <jc@trillian.mit.edu>
M: 2/4
L: 1/8
K: C
|: G \
| "C"cg -gc | B>A GG | "C"cc "G7"de/f/ | "C"e2 "G7"dG \
| "C"cg -gc | B>A Gf | "F"ed/c/ "G7"GB | "C"c3  :|
|| c \
| "Am"ce- eA | "E7"c>B "Am"AA | cc "Dm"de/f/ | "C"e2 "G7"dG \
| "C"ce- eg | "Dm"f>e de | "F"fa- ac' | "G7"b>a gg |
| "C"c'g- gf | e>f gg | "F"af- fe | "Dm"d2- "G7"dG \
| "C"cG- Gc | "G7"B>c dG | "F"Ac- "G7"cB | "C"c3 |]
P: Nancy's Fancy   (G)
C: Fred Grimshaw
N: For the dance Fenterlarick by Joyce Walker
B: Barnes p.33
Z: 1998 by John Chambers <jc@trillian.mit.edu>
M: 2/4
L: 1/8
K: G
|: D \
| "G"Gd -dG | F>E DD | "G"GG "D7"AB/c/ | "G"B2 "D7"AD \
| "G"Gd -dG | F>E Dc | "C"BA/G/ "D7"DF | "G"G3  :|
|| G \
| "Em"GB- BE | "B7"G>F "Em"EE | GG "Am"AB/c/ | "G"B2 "D7"AD \
| "G"GB- Bd | "Am"c>B AB | "C"ce- eg | "D7"f>e dd |
| "G"gd- dc | B>c dd | "C"ec- cB | "Am"A2- "D7"AD \
| "G"GD- DG | "D7"F>G AD | "C"EG- "D7"GF | "G"G3 |]

%%sep 1 1 500


